src/icons/brand/glyph/PinterestIcon.svg

<svg width="24" height="24" viewBox="0 0 24 24" fill="none" xmlns="http://www.w3.org/2000/svg">
<path d="M5 9.17548C5 4.74038 8.96094 2 12.9688 2C16.6484 2 20 4.59615 20 8.57452C20 12.3125 18.1367 16.4591 13.9883 16.4591C13.0039 16.4591 11.7617 15.9543 11.2812 15.0168C10.3906 18.6346 10.4609 19.1755 8.49219 21.9399L8.32812 22L8.22266 21.8798C8.15234 21.1226 8.04688 20.3774 8.04688 19.6202C8.04688 17.1683 9.14844 13.6226 9.6875 11.2428C9.39453 10.6298 9.3125 9.88462 9.3125 9.21154C9.3125 7.9976 10.1328 6.45913 11.4688 6.45913C12.4531 6.45913 12.9805 7.22837 12.9805 8.17788C12.9805 9.74038 11.9492 11.2067 11.9492 12.7212C11.9492 13.7548 12.7812 14.476 13.7539 14.476C16.4492 14.476 17.2812 10.4856 17.2812 8.35817C17.2812 5.50962 15.3125 3.95913 12.6523 3.95913C9.55859 3.95913 7.16797 6.24279 7.16797 9.46394C7.16797 11.0144 8.09375 11.8077 8.09375 12.1803C8.09375 12.4928 7.87109 13.5986 7.48438 13.5986C7.42578 13.5986 7.34375 13.5745 7.28516 13.5625C5.60938 13.0457 5 10.75 5 9.17548Z" fill="currentColor"/>
</svg>

<svg xmlns="http://www.w3.org/2000/svg" width="24" height="24" fill="currentColor" viewBox="0 0 24 24">
  <path d="M5 9.175C5 4.74 8.96 2 12.969 2 16.649 2 20 4.596 20 8.575c0 3.738-1.863 7.884-6.012 7.884-.984 0-2.226-.505-2.707-1.442-.89 3.618-.82 4.159-2.789 6.923l-.164.06-.105-.12c-.07-.757-.176-1.503-.176-2.26 0-2.452 1.101-5.997 1.64-8.377-.292-.613-.374-1.358-.374-2.031 0-1.214.82-2.753 2.156-2.753.984 0 1.511.77 1.511 1.719 0 1.562-1.03 3.029-1.03 4.543 0 1.034.831 1.755 1.804 1.755 2.695 0 3.527-3.99 3.527-6.118 0-2.848-1.968-4.399-4.629-4.399-3.093 0-5.484 2.284-5.484 5.505 0 1.55.926 2.344.926 2.716 0 .313-.223 1.419-.61 1.419-.058 0-.14-.024-.199-.037C5.61 13.046 5 10.75 5 9.175Z"/>
</svg>
